X:1
T:[ID 2-25]
T:[ID 2-25]
T:Bezeichnung standardisiert: Menuet de Roise [1]; Menuet
T:Urheber unbekannt Datum in der hier transkribierten schriftlichen Quelle: 1767
C:Urheber unbekannt
C:Datum in der hier transkribierten schriftlichen Quelle: 1767
L:1/8
M:3/4
K:D
V:1 treble 
V:1
 A2 F2 G2 | A3 B A2 | G2 E2 F2 | G3 A G2 | (Fd)(dc)(cB) | (cA)(AG) F2 | G2 G2 E2 |{F} E6 :: %8
 A2 d2 AB | T_c4 B2 | A2 G2 F2 | F4 E2 | FddccB | A2 Bc d2 | (3BAG F2 E2 |{E} D6 :| %16

